tools/download-figma-icons/icons/solid/cash-in.svg

<svg width="24" height="24" viewBox="0 0 24 24" fill="none" xmlns="http://www.w3.org/2000/svg">
<path fill-rule="evenodd" clip-rule="evenodd" d="M18.375 4.5V4.875C18.375 6.945 14.34 8.625 9.375 8.625C4.4025 8.625 0.375 6.945 0.375 4.875V4.5C0.375 3.9 0.6075 3.3375 1.0275 2.8125C2.3625 1.17075 5.595 0 9.375 0C13.1625 0 16.41 1.17075 17.7375 2.82825C18.15 3.345 18.375 3.9075 18.375 4.5ZM12.6129 23.7495C11.6079 23.9113 10.516 24 9.375 24C4.4025 24 0.375 22.32 0.375 20.25V17.5875C1.83 19.2225 5.3175 20.3775 9.39075 20.3775C9.66642 20.3775 9.93944 20.3722 10.2093 20.3618C10.6921 21.6998 11.5316 22.8673 12.6129 23.7495ZM18.375 9.99529V7.37475C16.8908 8.99475 13.425 10.1273 9.39075 10.1273C5.3175 10.1273 1.83 8.97225 0.375 7.33725V9.99975C0.375 12.0705 4.4025 13.7498 9.375 13.7498C9.88485 13.7498 10.3849 13.732 10.8718 13.698C12.2344 11.4508 14.7037 9.94922 17.5238 9.94922C17.8114 9.94922 18.0954 9.96484 18.375 9.99529ZM10.1545 15.2413C9.90249 15.2503 9.64777 15.2549 9.39075 15.2549C5.3175 15.2549 1.83 14.0999 0.375 12.4649V15.1274C0.375 17.1974 4.4025 18.8774 9.375 18.8774C9.52907 18.8774 9.68224 18.8758 9.83442 18.8726C9.77881 18.4975 9.75 18.1136 9.75 17.723C9.75 16.8552 9.89219 16.0206 10.1545 15.2413Z" fill="black"/>
<path fill-rule="evenodd" clip-rule="evenodd" d="M17.5237 23.9967C20.9886 23.9967 23.7975 21.1879 23.7975 17.723C23.7975 14.2581 20.9886 11.4492 17.5237 11.4492C14.0589 11.4492 11.25 14.2581 11.25 17.723C11.25 21.1879 14.0589 23.9967 17.5237 23.9967Z" fill="black"/>
<path fill-rule="evenodd" clip-rule="evenodd" d="M14.2502 17.6806C14.2502 17.6811 14.2502 17.6817 14.2502 17.6826C14.2502 17.6828 14.2502 17.6823 14.2502 17.6826C14.2505 17.7369 14.2609 17.7895 14.2782 17.8376C14.279 17.8399 14.2796 17.8419 14.2804 17.8442C14.3007 17.8974 14.3308 17.9452 14.3681 17.9847L16.4444 20.1995C16.6007 20.3663 16.8538 20.3663 17.01 20.1995C17.1663 20.0331 17.1663 19.7628 17.01 19.5961L15.6125 18.1053L20.3168 18.0894C20.5377 18.0885 20.7163 17.8968 20.7155 17.6612C20.715 17.4257 20.5358 17.2359 20.3155 17.2359H20.3142L15.6189 17.2518L17.0468 15.7286C17.2031 15.5619 17.2031 15.2919 17.0468 15.1252C16.9687 15.0418 16.8666 15 16.7641 15C16.6617 15 16.5593 15.0418 16.4812 15.1252L14.3671 17.3801C14.3303 17.4197 14.3004 17.4675 14.2801 17.5201C14.2793 17.5218 14.279 17.5238 14.2785 17.5258C14.2606 17.5739 14.2505 17.6259 14.2502 17.6806Z" fill="white"/>
</svg>

<svg xmlns="http://www.w3.org/2000/svg" width="24" height="24" fill="none" viewBox="0 0 24 24"><path fill="currentColor" fill-rule="evenodd" d="M18.375 4.5v.375c0 2.07-4.035 3.75-9 3.75-4.972 0-9-1.68-9-3.75V4.5c0-.6.233-1.162.653-1.687C2.362 1.17 5.595 0 9.375 0c3.787 0 7.035 1.17 8.363 2.828.412.517.637 1.08.637 1.672m-5.762 19.25c-1.005.161-2.097.25-3.238.25-4.972 0-9-1.68-9-3.75v-2.663c1.455 1.636 4.943 2.79 9.016 2.79q.413 0 .818-.015a7.8 7.8 0 0 0 2.404 3.388m5.762-13.755v-2.62c-1.484 1.62-4.95 2.752-8.984 2.752-4.073 0-7.561-1.155-9.016-2.79V10c0 2.07 4.028 3.75 9 3.75q.766 0 1.497-.052a7.77 7.77 0 0 1 7.503-3.703m-8.22 5.246q-.379.014-.764.014c-4.073 0-7.561-1.155-9.016-2.79v2.662c0 2.07 4.028 3.75 9 3.75q.23 0 .46-.004a7.84 7.84 0 0 1 .32-3.632" clip-rule="evenodd"/><path fill="currentColor" fill-rule="evenodd" d="M17.524 23.997a6.274 6.274 0 1 0 0-12.548 6.274 6.274 0 0 0 0 12.548" clip-rule="evenodd"/><path fill="currentColor" fill-rule="evenodd" d="M14.25 17.68v.003q0 .082.028.155l.002.006q.03.08.088.14l2.076 2.215c.157.167.41.167.566 0a.447.447 0 0 0 0-.603l-1.398-1.49 4.705-.017c.22 0 .4-.192.398-.428 0-.235-.18-.425-.4-.425l-4.696.016 1.428-1.523a.447.447 0 0 0 0-.604.4.4 0 0 0-.283-.125.4.4 0 0 0-.283.125l-2.114 2.255a.4.4 0 0 0-.087.14l-.002.006a.5.5 0 0 0-.028.155" clip-rule="evenodd"/></svg>
